public/assets/logos/software/vim.svg

<svg fill="none" height="10" viewBox="0 0 10 10" width="10" xmlns="http://www.w3.org/2000/svg" xmlns:xlink="http://www.w3.org/1999/xlink"><clipPath id="a"><path d="m.020001 0h9.96v10h-9.96z"/></clipPath><g clip-path="url(#a)"><path d="m5.01104.075943-4.9154551 4.899577 4.9154551 4.92223 4.89289-4.92223z" fill="#019833"/><path d="m5.01021.525848v-.413612l-4.882349 4.864174h.418359z" fill="#66fe98"/><path d="m5.01018.525848v-.413612l4.89752 4.864174h-.45271z" fill="#45fe02"/><path d="m5.01021 9.44783v.45789l-4.882349-4.9293h.418359z" fill="#017d17"/><path d="m5.01018 9.44783v.45789l4.89752-4.9293h-.45271z" fill="#005d04"/><path d="m2.55764 8.97143h-.94644l-.36961-.3602v-6.87796h-.293349l-.251139-.25149v-.76883l.260166-.282187h3.309952l.29759.297944v.729723l-.24729.30141h-.25009v2.32496l2.35333-2.32496h-.13139l-.27371-.29518v-.77377l.26892-.24686h3.34096l.26441.264757v.731823z" fill="#000"/><path d="m5.01028 9.97329-4.9902757-4.99688 4.9902757-4.97642526 4.96972 4.97642526zm-4.837413-4.99688 4.837413 4.8439 4.81678-4.8439-4.81678-4.823329z" fill="#000"/><path d="m4.2247.884802.14702-.09497-.15021-.155936h-3.18397l-.161777.162006v.612778l.179357.17959.08556-.17959-.11252-.11272v-.431972l.08439-.075129 3.00605.003697z" fill="#fefefe"/><path d="m1.63289 1.39412v7.17174l.10085.09602-.08081.15271-.21208-.20889v-7.02565z" fill="#fefefe"/><path d="m1.11847 1.39412-.06334.19414h.38462l.22251-.19414z" fill="#808080"/><path d="m6.49901 1.39661-.1345-.09501v-.385014l.14068-.14088h2.93544l.11256.150256.16017-.126406-.16488-.150645h-3.15584l-.15711.157297v.617482l.16543.14971m-2.55283 2.96894-.30654.74482 3.46063-3.47468-.01692-.42034z" fill="#fefefe"/><path d="m4.21777.882041.15395-.092208v.604287l-.17574.17598h-.34152l-.00634 2.97224-.30537.74311v-3.89133h.57032l.1061-.08633zm5.32498.001984.17061-.084465v.55181l-7.26539 7.46323h-.79505l.07757-.14668.61064.00004 7.20267-7.44712zm-2.55746.508115-.17695.17776-.40738.0035.09948-.17857z" fill="#808080"/><path d="m6.47729.769951-.11244.112556v.413343l.09847.09859h.52026v.39937l-3.44165 3.49312v-3.88755h.57196l.11734-.1175v-.418282l-.10831-.083804h-3.01002l-.09848.098627v.427269l.10011.10026h.52356v7.15883l.09847.09859h.59496l7.2124-7.45218v-.328683l-.11244-.112556z" fill="#ccc"/><path d="m2.33559 8.6729h-.60293l-.10403-.10419v-7.15326h-.518l-.10567-.10583v-.435164l.10403-.104152h3.01722l.11458.088628v.426878l-.1229.12306h-.56644v3.85487l3.42266-3.47386v-.38591h-.51469l-.10403-.10419v-.4212l.11796-.118158h2.96209l.118.118158v.33646l-.00264.00276zm-.59503-.01902h.58698l7.20691-7.4465v-.320941l-.10687-.106992h-2.94633l-.10688.106992v.405481l.09291.09302h.52586v.41276l-.00273.00276-3.45795 3.50966v-3.92023h.57753l.11178-.11198v-.40964l-.10205-.07898h-3.00287l-.0929.093064v.419406l.09458.0947h.52908v7.16435z" fill="#808080"/><path d="m5.25538 5.59545c-.00548.00114-.01057.00369-.01478.00739l-.13948.11995c-.00416.0038-.00727.00861-.00903.01396l-.13951.39117c-.00206.00574-.00246.01195-.00115.01791s.00427.01143.00854.01578l.10668.1068c.00617.00593.01443.00919.02299.00906h.43081c.00855.00014.01681-.00312.02296-.00906l.11244-.11337c.00389-.0039.00669-.00872.00821-.01397l.11983-.41171c.00162-.00558.00171-.0115.00027-.01713s-.00437-.01077-.00848-.01489l-.09276-.09287c-.00304-.00294-.00663-.00525-.01057-.0068s-.00815-.0023-.01238-.00222h-.39801c-.00219-.00024-.00439-.00024-.00658 0zm-.7894 1.10272c-.00593.00127-.01138.00418-.01573.0084-.00435.00421-.00744.00957-.0089.01545l-.05334.212c-.00119.00475-.00129.00972-.00028.01451.00101.0048.00309.00931.00609.01318.003.00388.00684.00702.01123.0092s.00922.00333.01412.00337h.25359l-.62861 1.79708c-.00163.00485-.00209.01002-.00135.01508.00075.00506.00268.00988.00565.01405.00296.00417.00687.00758.01141.00995.00453.00237.00956.00363.01468.00368h.91496c.00688.00009.01362-.00202.01923-.00601s.0098-.00967.01197-.0162l.05992-.19309c.00148-.00487.0018-.01001.00093-.01502-.00088-.00501-.00291-.00974-.00595-.01382-.00303-.00408-.00699-.00738-.01153-.00965-.00455-.00227-.00957-.00344-.01466-.00342h-.20678l.62203-1.81598c.00164-.00485.0021-.01002.00135-.01508-.00074-.00506-.00268-.00988-.00564-.01405-.00297-.00417-.00688-.00758-.01141-.00995-.00454-.00237-.00957-.00363-.01468-.00368h-.96177c-.00217-.0002-.00436-.0002-.00653 0zm2.91155.00657c-.00705.00147-.01342.00523-.0181.0107l-.19036.21527h-.30281l-.20189-.20951c-.00297-.00309-.00653-.00556-.01048-.00726-.00394-.0017-.00818-.00259-.01247-.00262h-.72296c-.00664.00001-.01312.00206-.01856.00589-.00543.00382-.00956.00922-.01182.01547l-.06645.19889c-.00162.00484-.00207.01-.00132.01505s.00268.00985.00564.01401.00686.00757.01138.00994c.00452.00238.00954.00365.01464.00371h.19368l-.60235 1.77736c-.00162.00485-.00206.01001-.00131.01506.00075.00506.00269.00987.00565.01403.00296.00417.00686.00758.01139.00995.00452.00238.00955.00365.01466.00372h.76972c.00664-.00002.01312-.00208.01855-.0059.00544-.00382.00957-.00922.01183-.01546l.05906-.17341c.00163-.00484.00209-.01.00134-.01505-.00075-.00506-.00268-.00986-.00564-.01403-.00296-.00416-.00686-.00757-.01139-.00994-.00452-.00237-.00954-.00364-.01465-.0037h-.13458l.38404-1.21041h.69506l-.4382 1.406c-.00149.00486-.00183.01-.00096.01501.00086.00502.00289.00975.00592.01384.00304.00408.00699.00739.01155.00965.00455.00227.00957.00343.01466.0034h.74264c.00631-.00006.01247-.00195.01772-.00546.00526-.0035.00937-.00846.01185-.01427l.06645-.15944c.00194-.00486.00267-.01013.00213-.01534-.00055-.00522-.00235-.01022-.00525-.01458-.00291-.00437-.00683-.00796-.01143-.01047s-.00974-.00387-.01498-.00396h-.13458l.39062-1.23095h.66141l-.44478 1.41257c-.00149.00486-.00181.01-.00094.01502.00086.00501.0029.00975.00594.01383.00303.00408.00699.00738.01154.00965.00456.00227.00958.00343.01467.0034h.81566c.00655.00003.01295-.00191.01837-.00558.00543-.00366.00961-.00888.01202-.01497l.06645-.1734c.00179-.00489.00237-.01014.0017-.0153s-.00257-.01009-.00555-.01436-.00694-.00776-.01155-.01018c-.00461-.00241-.00974-.00368-.01495-.0037h-.16169l.49158-1.59823c.00162-.00497.00201-.01025.00115-.0154-.00086-.00516-.00295-.01003-.00609-.0142l-.15263-.20543c-.00312-.00396-.00711-.00713-.01167-.00927s-.00956-.00319-.01459-.00306h-.58344c-.00443-.00008-.00884.00076-.01293.00246-.0041.0017-.0078.00422-.01088.00742l-.18383.20212h-.32168l-.19037-.2087c-.00307-.00319-.00678-.00572-.01087-.00742-.0041-.0017-.0085-.00253-.01294-.00246h-.47022c-.00217-.00019-.00436-.00019-.00653 0z" fill="#ccc"/><path d="m5.01388 6.3232c.02035.0196.04696.03034.07396.03034l.00179-.00004h.42949c.02886.0009.05618-.01023.07831-.03151l.11217-.11318c.01299-.01299.02253-.02922.02747-.04649l.11979-.41163c.00546-.01867.00579-.03846.00096-.0573-.00482-.01883-.01463-.03603-.02839-.04977l-.09372-.09388c-.00998-.00983-.02182-.01758-.03483-.02279-.013-.00521-.02692-.00778-.04092-.00756h-.39529c-.00566-.00032-.01133-.00019-.01696.00039l-.00798.00125c-.01829.00385-.03537.01237-.04871.02412l-.13952.11998-.00159.00144c-.01358.01238-.02381.02802-.02973.04541l-.1392.39027c-.00683.01931-.00808.04016-.00363.06016.00445.01999.01443.03834.0288.05294zm.62849-.65172.06128.06135-.10956.37646-.09128.09213-.3956.00004-.0738-.07392.12672-.35522.11726-.10084zm3.77877 1.21224-.15263-.20543-.00136-.00175c-.01031-.01304-.02348-.02354-.03849-.03069s-.03145-.01076-.04808-.01055h-.58157c-.01484-.0003-.02959.00247-.04331.00815s-.02612.01414-.03641.02484l-.16278.17901h-.25449l-.16776-.18391-.00156-.00167c-.01021-.01045-.02241-.01875-.03588-.02442-.01347-.00566-.02794-.00858-.04255-.00857h-.4675c-.00565-.00032-.01133-.00019-.01696.00038l-.00786.00121c-.02309.00479-.04398.01699-.05949.03474l-.16769.18963h-.23619l-.17956-.18636c-.0101-.01037-.02217-.01863-.03549-.0243-.01333-.00567-.02764-.00864-.04213-.00873h-.72318c-.02221.00012-.04386.00703-.06202.0198-.01817.01278-.03199.03081-.03961.05167l-.06707.20056c-.00543.01628-.00692.03362-.00436.05059.00256.01696.00911.03308.01911.04703.00999.01395.02315.02534.03839.03322.01524.00789.03214.01205.0493.01214h.08761l-.56841 1.67725c-.00907.02727-.00696.05702.00585.08274s.03528.04533.0625.05452c.01078.00358.02199.00549.03416.00561h.76996c.02245-.00018.0443-.00727.06257-.02031.01828-.01304.03209-.03139.03956-.05257l.05921-.17375c.00541-.01628.00689-.03361.00432-.05057-.00257-.01697-.00912-.03308-.01912-.04702-.01-.01395-.02315-.02533-.03839-.03321s-.03213-.01204-.04929-.01214h-.03069l.3358-1.05829h.53605l-.40759 1.30768c-.00837.02748-.0055.05716.00797.08254.01346.02538.03644.04438.06389.05285.01043.00303.02121.00464.03206.00479h.74331c.0212-.00019.04189-.00659.0595-.01841s.03137-.02853.03959-.04808l.067-.16069c.00648-.0164.00886-.03414.00695-.05168-.00192-.01754-.00809-.03434-.01796-.04896s-.02316-.02661-.03871-.03493c-.01556-.00833-.0329-.01274-.05054-.01285h-.03066l.34233-1.07884h.50209l-.41385 1.31434c-.0049.01618-.00595.03328-.00308.04994.00288.01666.0096.03242.01964.04603.01004.0136.02311.02467.03819.03234.01507.00766.03172.01169.04863.01179h.81574c.02199-.00001.04346-.00663.06163-.01901.01817-.01237.0322-.02992.04027-.05036l.06688-.1745c.00596-.01638.00788-.03396.00562-.05124-.00227-.01728-.00867-.03377-.01865-.04806s-.02326-.02597-.0387-.03404c-.01545-.00808-.03262-.01232-.05005-.01236h-.05875l.46092-1.49859c.0054-.01652.00675-.0341.00393-.05125s-.00971-.03337-.02011-.0473zm-.65063 1.74922h.20111l-.03276.0854h-.72662l.45801-1.45443h-.82077l-.43886 1.38304h.17243l-.02976.07139h-.65421l.45127-1.44786h-.85407l-.43228 1.36246h.17718l-.02911.0854h-.6772l.61682-1.82011h-.23877l.03704-.11084h.67258l.21137.21939h.36942l.19978-.22597.43241-.00004.19935.21862h.38891l.19278-.212h.54352l.1259.16947zm-3.68905-.1473c-.01041-.00307-.0212-.00468-.03206-.00478h-.10038l.58772-1.71573c.00543-.01628.00692-.03362.00436-.05059-.00257-.01697-.00912-.03309-.01912-.04704-.01-.01396-.02316-.02534-.03841-.03322s-.03215-.01204-.04931-.01213h-.95904c-.00567-.00032-.01135-.00019-.017.00039l-.00829.00132c-.01982.00418-.03807.01387-.05264.02795-.01456.01408-.02487.03198-.02972.05166l-.05338.21219c-.0069.02793-.00244.05745.01239.0821.01484.02465.03884.04242.06674.0494.00825.00203.01677.00312.02584.00315h.1464l-.59351 1.6969c-.00542.01628-.00691.03362-.00434.05058.00257.01697.00912.03308.01912.04703s.02316.02532.0384.0332.03214.01204.0493.01213h.91546c.04684 0 .08805-.02968.10334-.07571l.05999-.1934c.00837-.02749.00551-.05717-.00796-.08254-.01347-.02538-.03645-.04439-.0639-.05286zm-.94511.25243.64355-1.83984h-.30448l.0312-.12399h.86621l-.63666 1.8587h.25421l-.0326.10513z" fill="#000"/></g></svg>

<svg width="10" height="10" viewBox="0 0 10 10" fill="none" xmlns="http://www.w3.org/2000/svg">
<g clip-path="url(#clip0_9_116)">
<path d="M5.01104 0.075943L0.0955849 4.97552L5.01104 9.89775L9.90393 4.97552L5.01104 0.075943Z" fill="#019833"/>
<path d="M5.01021 0.525848V0.112236L0.127861 4.97641H0.54622L5.01021 0.525848Z" fill="#66FE98"/>
<path d="M5.01018 0.525848V0.112236L9.9077 4.97641H9.45499L5.01018 0.525848Z" fill="#45FE02"/>
<path d="M5.01021 9.44783V9.90572L0.127861 4.97642H0.54622L5.01021 9.44783Z" fill="#017D17"/>
<path d="M5.01018 9.44783V9.90572L9.9077 4.97642H9.45499L5.01018 9.44783Z" fill="#005D04"/>
<path d="M2.55764 8.97143H1.6112L1.24159 8.61123V1.73327H0.948241L0.697102 1.48178V0.71295L0.957268 0.430763H4.26722L4.56481 0.728707V1.45843L4.31752 1.75984H4.06743V4.0848L6.42076 1.75984H6.28937L6.01566 1.46466V0.69089L6.28458 0.44403H9.62554L9.88995 0.708787V1.44061L2.55764 8.97143Z" fill="black"/>
<path d="M5.01028 9.97329L0.0200043 4.97641L5.01028 -1.52588e-05L9.98 4.97641L5.01028 9.97329ZM0.172867 4.97641L5.01028 9.82031L9.82706 4.97641L5.01028 0.153081L0.172867 4.97641Z" fill="black"/>
<path d="M4.2247 0.884802L4.37172 0.789832L4.22151 0.633896H1.03754L0.875763 0.795902V1.40868L1.05512 1.58827L1.14068 1.40868L1.02816 1.29596V0.863988L1.11255 0.788859L4.1186 0.792556L4.2247 0.884802Z" fill="#FEFEFE"/>
<path d="M1.63289 1.39412V8.56586L1.73374 8.66188L1.65293 8.81459L1.44085 8.6057V1.58005L1.63289 1.39412Z" fill="#FEFEFE"/>
<path d="M1.11847 1.39412L1.05513 1.58826H1.43975L1.66226 1.39412H1.11847Z" fill="#808080"/>
<path d="M6.49901 1.39661L6.36451 1.3016V0.916586L6.50519 0.775706H9.44063L9.55319 0.925962L9.71336 0.799556L9.54848 0.648911H6.39264L6.23553 0.806208V1.42369L6.40096 1.5734M3.84813 4.54234L3.54159 5.28716L7.00222 1.81248L6.9853 1.39214L3.84813 4.54234Z" fill="#FEFEFE"/>
<path d="M4.21777 0.882041L4.37172 0.789833V1.39412L4.19598 1.5701H3.85446L3.84812 4.54234L3.54275 5.28545V1.39412H4.11307L4.21917 1.30779L4.21777 0.882041ZM9.54275 0.884025L9.71336 0.79956V1.35137L2.44797 8.8146H1.65292L1.73049 8.66792L2.34113 8.66796L9.5438 1.22084L9.54275 0.884025ZM6.98529 1.39214L6.80834 1.5699L6.40096 1.5734L6.50044 1.39483L6.98529 1.39214Z" fill="#808080"/>
<path d="M6.47729 0.769951L6.36485 0.882507V1.29585L6.46332 1.39444H6.98358V1.79381L3.54193 5.28693V1.39938H4.11389L4.23123 1.28188V0.863598L4.12292 0.779794H1.1129L1.01442 0.878421V1.30569L1.11453 1.40595H1.63809V8.56478L1.73656 8.66337H2.33152L9.54392 1.21119V0.882507L9.43148 0.769951H6.47729Z" fill="#CCCCCC"/>
<path d="M2.33559 8.6729H1.73266L1.62863 8.56871V1.41545H1.11063L1.00496 1.30962V0.874456L1.10899 0.770304H4.12621L4.24079 0.858932V1.28581L4.11789 1.40887H3.55145V5.26374L6.97411 1.78988V1.40397H6.45942L6.35539 1.29978V0.87858L6.47335 0.760422H9.43544L9.55344 0.87858V1.21504L9.5508 1.2178L2.33559 8.6729ZM1.74056 8.65388H2.32754L9.53445 1.20738V0.886439L9.42758 0.779447H6.48125L6.37437 0.886439V1.29192L6.46728 1.38494H6.99314V1.7977L6.99041 1.80046L3.53246 5.31012V1.38989H4.10999L4.22177 1.27791V0.86827L4.11972 0.78929H1.11685L1.02395 0.882354V1.30176L1.11853 1.39646H1.64761V8.56081L1.74056 8.65388Z" fill="#808080"/>
<path d="M5.25538 5.59545C5.2499 5.59659 5.24481 5.59914 5.2406 5.60284L5.10112 5.72279C5.09696 5.72659 5.09385 5.7314 5.09209 5.73675L4.95258 6.12792C4.95052 6.13366 4.95012 6.13987 4.95143 6.14583C4.95274 6.15179 4.9557 6.15726 4.95997 6.16161L5.06665 6.26841C5.07282 6.27434 5.08108 6.2776 5.08964 6.27747H5.52045C5.529 6.27761 5.53726 6.27435 5.54341 6.26841L5.65585 6.15504C5.65974 6.15114 5.66254 6.14632 5.66406 6.14107L5.78389 5.72936C5.78551 5.72378 5.7856 5.71786 5.78416 5.71223C5.78272 5.7066 5.77979 5.70146 5.77568 5.69734L5.68292 5.60447C5.67988 5.60153 5.67629 5.59922 5.67235 5.59767C5.66841 5.59612 5.6642 5.59537 5.65997 5.59545H5.26196C5.25977 5.59521 5.25757 5.59521 5.25538 5.59545ZM4.46598 6.69817C4.46005 6.69944 4.4546 6.70235 4.45025 6.70657C4.4459 6.71078 4.44281 6.71614 4.44135 6.72202L4.38801 6.93402C4.38682 6.93877 4.38672 6.94374 4.38773 6.94853C4.38874 6.95333 4.39082 6.95784 4.39382 6.96171C4.39682 6.96559 4.40066 6.96873 4.40505 6.97091C4.40944 6.97309 4.41427 6.97424 4.41917 6.97428H4.67276L4.04415 8.77136C4.04252 8.77621 4.04206 8.78138 4.0428 8.78644C4.04355 8.7915 4.04548 8.79632 4.04845 8.80049C4.05141 8.80466 4.05532 8.80807 4.05986 8.81044C4.06439 8.81281 4.06942 8.81407 4.07454 8.81412H4.9895C4.99638 8.81421 5.00312 8.8121 5.00873 8.80811C5.01434 8.80412 5.01853 8.79844 5.0207 8.79191L5.08062 8.59882C5.0821 8.59395 5.08242 8.58881 5.08155 8.5838C5.08067 8.57879 5.07864 8.57406 5.0756 8.56998C5.07257 8.5659 5.06861 8.5626 5.06407 8.56033C5.05952 8.55806 5.0545 8.55689 5.04941 8.55691H4.84263L5.46466 6.74093C5.4663 6.73608 5.46676 6.73091 5.46601 6.72585C5.46527 6.72079 5.46333 6.71597 5.46037 6.7118C5.4574 6.70763 5.45349 6.70422 5.44896 6.70185C5.44442 6.69948 5.43939 6.69822 5.43428 6.69817H4.47251C4.47034 6.69797 4.46815 6.69797 4.46598 6.69817ZM7.37753 6.70474C7.37048 6.70621 7.36411 6.70997 7.35943 6.71544L7.16907 6.93071H6.86626L6.66437 6.7212C6.6614 6.71811 6.65784 6.71564 6.65389 6.71394C6.64995 6.71224 6.64571 6.71135 6.64142 6.71132H5.91846C5.91182 6.71133 5.90534 6.71338 5.8999 6.71721C5.89447 6.72103 5.89034 6.72643 5.88808 6.73268L5.82163 6.93157C5.82001 6.93641 5.81956 6.94157 5.82031 6.94662C5.82106 6.95167 5.82299 6.95647 5.82595 6.96063C5.82891 6.96479 5.83281 6.9682 5.83733 6.97057C5.84185 6.97295 5.84687 6.97422 5.85197 6.97428H6.04565L5.4433 8.75164C5.44168 8.75649 5.44124 8.76165 5.44199 8.7667C5.44274 8.77176 5.44468 8.77657 5.44764 8.78073C5.4506 8.7849 5.4545 8.78831 5.45903 8.79068C5.46355 8.79306 5.46858 8.79433 5.47369 8.7944H6.24341C6.25005 8.79438 6.25653 8.79232 6.26196 8.7885C6.2674 8.78468 6.27153 8.77928 6.27379 8.77304L6.33285 8.59963C6.33448 8.59479 6.33494 8.58963 6.33419 8.58458C6.33344 8.57952 6.33151 8.57472 6.32855 8.57055C6.32559 8.56639 6.32169 8.56298 6.31716 8.56061C6.31264 8.55824 6.30762 8.55697 6.30251 8.55691H6.16793L6.55197 7.3465H7.24703L6.80883 8.7525C6.80734 8.75736 6.807 8.7625 6.80787 8.76751C6.80873 8.77253 6.81076 8.77726 6.81379 8.78135C6.81683 8.78543 6.82078 8.78874 6.82534 8.791C6.82989 8.79327 6.83491 8.79443 6.84 8.7944H7.58264C7.58895 8.79434 7.59511 8.79245 7.60036 8.78894C7.60562 8.78544 7.60973 8.78048 7.61221 8.77467L7.67866 8.61523C7.6806 8.61037 7.68133 8.6051 7.68079 8.59989C7.68024 8.59467 7.67844 8.58967 7.67554 8.58531C7.67263 8.58094 7.66871 8.57735 7.66411 8.57484C7.65951 8.57233 7.65437 8.57097 7.64913 8.57088H7.51455L7.90517 7.33993H8.56658L8.1218 8.7525C8.12031 8.75736 8.11999 8.7625 8.12086 8.76752C8.12172 8.77253 8.12376 8.77727 8.1268 8.78135C8.12983 8.78543 8.13379 8.78873 8.13834 8.791C8.1429 8.79327 8.14792 8.79443 8.15301 8.7944H8.96867C8.97522 8.79443 8.98162 8.79249 8.98704 8.78882C8.99247 8.78516 8.99665 8.77994 8.99906 8.77385L9.06551 8.60045C9.0673 8.59556 9.06788 8.59031 9.06721 8.58515C9.06654 8.57999 9.06464 8.57506 9.06166 8.57079C9.05868 8.56652 9.05472 8.56303 9.05011 8.56061C9.0455 8.5582 9.04037 8.55693 9.03516 8.55691H8.87347L9.36505 6.95868C9.36667 6.95371 9.36706 6.94843 9.3662 6.94328C9.36534 6.93812 9.36325 6.93325 9.36011 6.92908L9.20748 6.72365C9.20436 6.71969 9.20037 6.71652 9.19581 6.71438C9.19125 6.71224 9.18625 6.71119 9.18122 6.71132H8.59778C8.59335 6.71124 8.58894 6.71208 8.58485 6.71378C8.58075 6.71548 8.57705 6.718 8.57397 6.7212L8.39014 6.92332H8.06846L7.87809 6.71462C7.87502 6.71143 7.87131 6.7089 7.86722 6.7072C7.86312 6.7055 7.85872 6.70467 7.85428 6.70474H7.38406C7.38189 6.70455 7.3797 6.70455 7.37753 6.70474Z" fill="#CCCCCC"/>
<path d="M5.01388 6.3232C5.03423 6.3428 5.06084 6.35354 5.08784 6.35354L5.08963 6.3535H5.51912C5.54798 6.3544 5.5753 6.34327 5.59743 6.32199L5.7096 6.20881C5.72259 6.19582 5.73213 6.17959 5.73707 6.16232L5.85686 5.75069C5.86232 5.73202 5.86265 5.71223 5.85782 5.69339C5.853 5.67456 5.84319 5.65736 5.82943 5.64362L5.73571 5.54974C5.72573 5.53991 5.71389 5.53216 5.70088 5.52695C5.68788 5.52174 5.67396 5.51917 5.65996 5.51939H5.26467C5.25901 5.51907 5.25334 5.5192 5.24771 5.51978L5.23973 5.52103C5.22144 5.52488 5.20436 5.5334 5.19102 5.54515L5.0515 5.66513L5.04991 5.66657C5.03633 5.67895 5.0261 5.69459 5.02018 5.71198L4.88098 6.10225C4.87415 6.12156 4.8729 6.14241 4.87735 6.16241C4.8818 6.1824 4.89178 6.20075 4.90615 6.21535L5.01388 6.3232ZM5.64237 5.67148L5.70365 5.73283L5.59409 6.10929L5.50281 6.20142L5.10721 6.20146L5.03341 6.12754L5.16013 5.77232L5.27739 5.67148H5.64237ZM9.42114 6.88372L9.26851 6.67829L9.26715 6.67654C9.25684 6.6635 9.24367 6.653 9.22866 6.64585C9.21365 6.6387 9.19721 6.63509 9.18058 6.6353H8.59901C8.58417 6.635 8.56942 6.63777 8.5557 6.64345C8.54198 6.64913 8.52958 6.65759 8.51929 6.66829L8.35651 6.8473H8.10202L7.93426 6.66339L7.9327 6.66172C7.92249 6.65127 7.91029 6.64297 7.89682 6.6373C7.88335 6.63164 7.86888 6.62872 7.85427 6.62873H7.38677C7.38112 6.62841 7.37544 6.62854 7.36981 6.62911L7.36195 6.63032C7.33886 6.63511 7.31797 6.64731 7.30246 6.66506L7.13477 6.85469H6.89858L6.71902 6.66833C6.70892 6.65796 6.69685 6.6497 6.68353 6.64403C6.6702 6.63836 6.65589 6.63539 6.6414 6.6353H5.91822C5.89601 6.63542 5.87436 6.64233 5.8562 6.6551C5.83803 6.66788 5.82421 6.68591 5.81659 6.70677L5.74952 6.90733C5.74409 6.92361 5.7426 6.94095 5.74516 6.95792C5.74772 6.97488 5.75427 6.991 5.76427 7.00495C5.77426 7.0189 5.78742 7.03029 5.80266 7.03817C5.8179 7.04606 5.8348 7.05022 5.85196 7.05031H5.93957L5.37116 8.72756C5.36209 8.75483 5.3642 8.78458 5.37701 8.8103C5.38982 8.83602 5.41229 8.85563 5.43951 8.86482C5.45029 8.8684 5.4615 8.87031 5.47367 8.87043H6.24363C6.26608 8.87025 6.28793 8.86316 6.3062 8.85012C6.32448 8.83708 6.33829 8.81873 6.34576 8.79755L6.40497 8.6238C6.41038 8.60752 6.41186 8.59019 6.40929 8.57323C6.40672 8.55626 6.40017 8.54015 6.39017 8.52621C6.38017 8.51226 6.36702 8.50088 6.35178 8.493C6.33654 8.48512 6.31965 8.48096 6.30249 8.48086H6.2718L6.6076 7.42257H7.14365L6.73606 8.73025C6.72769 8.75773 6.73056 8.78741 6.74403 8.81279C6.75749 8.83817 6.78047 8.85717 6.80792 8.86564C6.81835 8.86867 6.82913 8.87028 6.83998 8.87043H7.58329C7.60449 8.87024 7.62518 8.86384 7.64279 8.85202C7.6604 8.8402 7.67416 8.82349 7.68238 8.80394L7.74938 8.64325C7.75586 8.62685 7.75824 8.60911 7.75633 8.59157C7.75441 8.57403 7.74824 8.55723 7.73837 8.54261C7.7285 8.52799 7.71521 8.516 7.69966 8.50768C7.6841 8.49935 7.66676 8.49494 7.64912 8.49483H7.61846L7.96079 7.41599H8.46288L8.04903 8.73033C8.04413 8.74651 8.04308 8.76361 8.04595 8.78027C8.04883 8.79693 8.05555 8.81269 8.06559 8.8263C8.07563 8.8399 8.0887 8.85097 8.10378 8.85864C8.11885 8.8663 8.1355 8.87033 8.15241 8.87043H8.96815C8.99014 8.87042 9.01161 8.8638 9.02978 8.85142C9.04795 8.83905 9.06198 8.8215 9.07005 8.80106L9.13693 8.62656C9.14289 8.61018 9.14481 8.5926 9.14255 8.57532C9.14028 8.55804 9.13388 8.54155 9.1239 8.52726C9.11392 8.51297 9.10064 8.50129 9.0852 8.49322C9.06975 8.48514 9.05258 8.4809 9.03515 8.48086H8.9764L9.43732 6.98227C9.44272 6.96575 9.44407 6.94817 9.44125 6.93102C9.43843 6.91387 9.43154 6.89765 9.42114 6.88372ZM8.77051 8.63294H8.97162L8.93886 8.71834H8.21224L8.67025 7.26391H7.84948L7.41062 8.64695H7.58305L7.55329 8.71834H6.89908L7.35035 7.27048H6.49628L6.064 8.63294H6.24118L6.21207 8.71834H5.53487L6.15169 6.89823H5.91292L5.94996 6.78739H6.62254L6.83391 7.00678H7.20333L7.40311 6.78081L7.83552 6.78077L8.03487 6.99939H8.42378L8.61656 6.78739H9.16008L9.28598 6.95686L8.77051 8.63294ZM5.08146 8.48564C5.07105 8.48257 5.06026 8.48096 5.0494 8.48086H4.94902L5.53674 6.76513C5.54217 6.74885 5.54366 6.73151 5.5411 6.71454C5.53853 6.69757 5.53198 6.68145 5.52198 6.6675C5.51198 6.65354 5.49882 6.64216 5.48357 6.63428C5.46832 6.6264 5.45142 6.62224 5.43426 6.62215H4.47522C4.46955 6.62183 4.46387 6.62196 4.45822 6.62254L4.44993 6.62386C4.43011 6.62804 4.41186 6.63773 4.39729 6.65181C4.38273 6.66589 4.37242 6.68379 4.36757 6.70347L4.31419 6.91566C4.30729 6.94359 4.31175 6.97311 4.32658 6.99776C4.34142 7.02241 4.36542 7.04018 4.39332 7.04716C4.40157 7.04919 4.41009 7.05028 4.41916 7.05031H4.56556L3.97205 8.74721C3.96663 8.76349 3.96514 8.78083 3.96771 8.79779C3.97028 8.81476 3.97683 8.83087 3.98683 8.84482C3.99683 8.85877 4.00999 8.87014 4.02523 8.87802C4.04047 8.8859 4.05737 8.89006 4.07453 8.89015H4.98999C5.03683 8.89015 5.07804 8.86047 5.09333 8.81444L5.15332 8.62104C5.16169 8.59355 5.15883 8.56387 5.14536 8.5385C5.13189 8.51312 5.10891 8.49411 5.08146 8.48564ZM4.13635 8.73807L4.7799 6.89823H4.47542L4.50662 6.77424H5.37283L4.73617 8.63294H4.99038L4.95778 8.73807H4.13635Z" fill="black"/>
</g>
<defs>
<clipPath id="clip0_9_116">
<rect width="9.96" height="10" fill="white" transform="translate(0.0200005)"/>
</clipPath>
</defs>
</svg>
